X:958
T:John Mahinney's No.1
S:Star of Munster Trio (Topic Records)
Z:Nigel Gatherer
M:6/8
L:1/8
K:D
e | f2A AFA | BAF A3 | B/c/dB AFA | Bcd efg |
f2A AFA | BAF A3 | B/c/dB AFA | Bdd d2 :|
e | fgf efe | dBA d2e | fgf efe | dfa b2a |
fgf efe | dBA d2e | fdB AFA | Bdd d2 :|
<end>
<start>
